Rowaita/symbolic/status/network-wired-disconnected-symbolic.svg

<?xml version="1.0" encoding="UTF-8" standalone="no"?>
<svg
   width="16"
   height="16"
   version="1.1"
   id="svg6"
   sodipodi:docname="network-wired-disconnected-symbolic.svg"
   xml:space="preserve"
   inkscape:version="1.2.1 (9c6d41e410, 2022-07-14)"
   xmlns:inkscape="http://www.inkscape.org/namespaces/inkscape"
   xmlns:sodipodi="http://sodipodi.sourceforge.net/DTD/sodipodi-0.dtd"
   xmlns="http://www.w3.org/2000/svg"
   xmlns:svg="http://www.w3.org/2000/svg"><defs
     id="defs10" /><sodipodi:namedview
     id="namedview8"
     pagecolor="#ffffff"
     bordercolor="#000000"
     borderopacity="0.25"
     inkscape:showpageshadow="2"
     inkscape:pageopacity="0.0"
     inkscape:pagecheckerboard="0"
     inkscape:deskcolor="#d1d1d1"
     showgrid="false"
     inkscape:zoom="22.693708"
     inkscape:cx="-7.4910632"
     inkscape:cy="9.8044797"
     inkscape:current-layer="svg6" /><g
     id="g290"
     transform="matrix(1.0666667,0,0,1.0666667,-1.0666668,-1.6003334)"><path
       style="opacity:0.3;fill:#444444"
       d="M 2,2 C 2,2 1,2 1,3 v 9 c 0,1 1,1 1,1 h 2 l 1,1 h 5 V 12 H 6 L 5,11 H 3 V 4 h 10 v 6 h 2 V 3 C 15,2 14,2 14,2 Z"
       id="path2" /><path
       d="m 11.833333,11 c -0.221354,0 -0.432943,0.08789 -0.589193,0.244141 -0.325521,0.325521 -0.325521,0.852864 0,1.178385 L 12.321614,13.5 11.24414,14.577474 c -0.325521,0.325521 -0.325521,0.852865 0,1.178385 0.325521,0.325521 0.852864,0.325521 1.178385,0 l 1.077474,-1.077474 1.077475,1.077474 c 0.325521,0.325521 0.852864,0.325521 1.178385,0 0.325521,-0.32552 0.325521,-0.852864 0,-1.178385 L 14.678385,13.5 15.755859,12.422526 c 0.325521,-0.325521 0.325521,-0.852864 0,-1.178385 C 15.599609,11.087891 15.38802,11 15.166666,11 c -0.221354,0 -0.432942,0.08789 -0.589192,0.244141 l -1.077475,1.077474 -1.077474,-1.077474 C 12.266275,11.087891 12.054687,11 11.833333,11 Z m 0,0"
       fill="#2e3436"
       id="path4-3"
       style="fill:#444444;fill-opacity:1;stroke-width:0.833333" /></g></svg>

<?xml version="1.0" encoding="UTF-8" standalone="no"?>
<svg
   width="16"
   height="16"
   version="1.1"
   id="svg6"
   sodipodi:docname="network-wired-disconnected-symbolic.svg"
   xml:space="preserve"
   inkscape:version="1.2.1 (9c6d41e410, 2022-07-14)"
   xmlns:inkscape="http://www.inkscape.org/namespaces/inkscape"
   xmlns:sodipodi="http://sodipodi.sourceforge.net/DTD/sodipodi-0.dtd"
   xmlns="http://www.w3.org/2000/svg"
   xmlns:svg="http://www.w3.org/2000/svg"><defs
     id="defs10" /><sodipodi:namedview
     id="namedview8"
     pagecolor="#ffffff"
     bordercolor="#000000"
     borderopacity="0.25"
     inkscape:showpageshadow="2"
     inkscape:pageopacity="0.0"
     inkscape:pagecheckerboard="0"
     inkscape:deskcolor="#d1d1d1"
     showgrid="false"
     inkscape:zoom="22.693708"
     inkscape:cx="-7.5351281"
     inkscape:cy="9.6722844"
     inkscape:current-layer="svg6" /><path
     style="opacity:0.3;fill:#444444"
     d="M 2,2 C 2,2 1,2 1,3 V 12 C 1,13 2,13 2,13 H 4 L 5,14 H 10 V 12 H 6 L 5,11 H 3 V 4 H 13 V 10 H 15 V 3 C 15,2 14,2 14,2 Z"
     id="path2" /><path
     d="m 11.833333,11 c -0.221354,0 -0.432943,0.08789 -0.589193,0.244141 -0.325521,0.325521 -0.325521,0.852864 0,1.178385 L 12.321614,13.5 11.24414,14.577474 c -0.325521,0.325521 -0.325521,0.852865 0,1.178385 0.325521,0.325521 0.852864,0.325521 1.178385,0 l 1.077474,-1.077474 1.077475,1.077474 c 0.325521,0.325521 0.852864,0.325521 1.178385,0 0.325521,-0.32552 0.325521,-0.852864 0,-1.178385 L 14.678385,13.5 15.755859,12.422526 c 0.325521,-0.325521 0.325521,-0.852864 0,-1.178385 C 15.599609,11.087891 15.38802,11 15.166666,11 c -0.221354,0 -0.432942,0.08789 -0.589192,0.244141 l -1.077475,1.077474 -1.077474,-1.077474 C 12.266275,11.087891 12.054687,11 11.833333,11 Z m 0,0"
     fill="#2e3436"
     id="path4-3"
     style="fill:#444444;fill-opacity:1;stroke-width:0.833333" /></svg>
